X: 1101
T: Wish You Were Here
C:Pink Floyd
B: steve song book
B: steve set list
M:4/4
Q: 1/4=100
K:G
V:1 
zG (3ABd|"Em7"e6ge|"G"d4 zG (3ABd|"Em7"eb ag ed BA|
"G"G4 zG (3ABd|"Em7"e6dB|"A7sus"A4zG (3ABd|"Em7"e6dB|"A7sus"A6 A/B/A/G/|"G"G8|
"C"zzzzzzzz|"D"zzzzzzzz|"Am"zzzzzzzz|"G"zzzzzzzz|
"D"zzzzzzzz|"C"zzzzzzzz|"Am"zzzzzzzz|"G"zzzzzzzz|
"C"zzzzzzzz|"D"zzzzzzzz|"Am"zzzzzzzz|"G"zzzzzzzz|
"D"zzzzzzzz|"C"zzzzzzzz|"Am"zzzzzzzz|"G"z2z2zG (3ABd|
"Em7"e6ge|"G"d4 zG (3ABd|"Em7"eb ag ed BA|
"G"G4 zG (3ABd|"Em7"e6dB|"A7sus"A4zG (3ABd|"Em7"e6dB|"A7sus"A6 A/B/A/G/|"G"G8|
"C"zzzzzzzz|"D"zzzzzzzz|"Am"zzzzzzzz|"G"zzzzzzzz|
"D"zzzzzzzz|"C"zzzzzzzz|"Am"zzzzzzzz|"G"z2z2zG (3ABd|
"Em7"e6ge|"G"d4 zG (3ABd|"Em7"eb ag ed BA|
"G"G4 zG (3ABd|"Em7"e6dB|"A7sus"A4zG (3ABd|"Em7"e6dB|"A7sus"A6 A/B/A/G/|"G"G8|
W: [Acoustic Guitar Solo]
W: 
W: [Verse]
W: So, so you think you can tell
W: Heaven from Hell? Blue skies from pain?
W: Can you tell a green field from a cold steel rail?
W: A smile from a veil? Do you think you can tell?
W: Did they get you to trade your heroes for ghosts?
W: Hot ashes for trees? Hot air for a cool breeze?
W: Cold comfort for change? Did you exchange
W: A walk-on part in the war
W: For a lead role in a cage?
W: 
W: [Acoustic Guitar Solo]
W: 
W: [Chorus]
W: How I wish, how I wish you were here
W: We're just two lost souls swimming in a fishbowl year after year
W: Running over the same old ground, what have we found?
W: The same old fears, wish you were here
% abcbook-tune_id 62b3dee0670bdb76119c89bf
% abcbook-link-0 https://www.youtube.com/watch?v=IXdNnw99-Ic
% abcbook-link-title-0 Pink Floyd - Wish You Were Here

% abcbook-boost 0
% abcbook-tablature 
% abcbook-transpose 
% abcbook-lastupdated 1667633118484
% abcbook-soundfonts 
% abcbook-repeats 1


